X: 31593
T: Palmer's Gate
R: reel
M: 4/4
K: Amajor
|:cF~F2 ABcA|BAcB AFEF|A3B cBAB|BAec BcAB|
cF~F2 ABcA|BAcB AFEF|ABce fecB|AF~F2 FGAB:|
|:cf~f2 effg|a2 ga fecB|Ae (3cBA eAcB|ABce fecB|
cf~f2 effg|afga fecB|ABce fecB|AF~F2 FGAB:|

